packages/foundations/assets/icons/functional/images/food/cup_28.svg

<svg width="28" height="28" viewBox="0 0 28 28" fill="none" xmlns="http://www.w3.org/2000/svg">
<g clip-path="url(#clip0_185_1047)">
<path fill-rule="evenodd" clip-rule="evenodd" d="M1.75 25.3887C1.75 25.8535 2.13281 26.2364 2.5977 26.2364H25.4023C25.8672 26.2364 26.25 25.8535 26.25 25.3887C26.25 24.8965 25.8672 24.5137 25.4023 24.5137H2.5977C2.13281 24.5137 1.75 24.8965 1.75 25.3887ZM5.2773 19.3183C5.2773 21.2051 6.80855 22.7364 8.69531 22.7364H17.5547C19.4141 22.7364 20.9727 21.2051 20.9727 19.3457V17.3496H21.9571C23.8438 17.3496 25.375 15.8183 25.375 13.9317C25.375 12.0176 23.8438 10.5137 21.9571 10.5137H5.2773V19.3183ZM6.9727 19.3457V12.2364H19.25V19.3457C19.25 20.2754 18.4844 21.041 17.5547 21.041H8.69531C7.76562 21.041 6.9727 20.2754 6.9727 19.3457ZM8.75 7.88866C8.75 8.35354 9.13281 8.73636 9.625 8.73636C10.0898 8.73636 10.4727 8.35354 10.4727 7.88866V4.36136C10.4727 3.89647 10.0898 3.51366 9.625 3.51366C9.13281 3.51366 8.75 3.89647 8.75 4.36136V7.88866ZM12.25 7.91604C12.25 8.38084 12.6328 8.76366 13.0977 8.76366C13.5625 8.76366 13.9453 8.38084 13.9453 7.91604V2.61136C13.9453 2.14647 13.5625 1.76366 13.0977 1.76366C12.6328 1.76366 12.25 2.14647 12.25 2.61136V7.91604ZM15.75 7.97073C15.75 8.43553 16.1328 8.81834 16.5977 8.81834C17.0625 8.81834 17.4453 8.43553 17.4453 7.97073V4.36136C17.4453 3.89647 17.0625 3.51366 16.5977 3.51366C16.1328 3.51366 15.75 3.89647 15.75 4.36136V7.97073ZM20.9727 15.627V12.2364H21.9571C22.9141 12.2364 23.6797 13.002 23.6797 13.9317C23.6797 14.8614 22.9141 15.627 21.9571 15.627H20.9727Z" fill="#1A1C1F"/>
</g>
<defs>
<clipPath id="clip0_185_1047">
<rect width="28" height="28" fill="white"/>
</clipPath>
</defs>
</svg>

<svg xmlns="http://www.w3.org/2000/svg" width="28" height="28" fill="none"><g clip-path="url(#a)"><path fill="#1A1C1F" fill-rule="evenodd" d="M1.75 25.389c0 .465.383.847.848.847h22.804a.85.85 0 0 0 .848-.847.86.86 0 0 0-.848-.875H2.598a.86.86 0 0 0-.848.875m3.527-6.07a3.42 3.42 0 0 0 3.418 3.417h8.86c1.86 0 3.418-1.53 3.418-3.39V17.35h.984a3.42 3.42 0 0 0 3.418-3.418 3.4 3.4 0 0 0-3.418-3.418H5.277zm1.696.027v-7.11H19.25v7.11c0 .93-.766 1.695-1.695 1.695h-8.86c-.93 0-1.722-.766-1.722-1.695M8.75 7.889c0 .465.383.847.875.847a.85.85 0 0 0 .848-.847V4.36a.85.85 0 0 0-.848-.847.86.86 0 0 0-.875.847zm3.5.027c0 .465.383.848.848.848a.85.85 0 0 0 .847-.848V2.611a.85.85 0 0 0-.847-.847.85.85 0 0 0-.848.847zm3.5.055c0 .465.383.847.848.847a.85.85 0 0 0 .847-.847V4.36a.85.85 0 0 0-.847-.847.85.85 0 0 0-.848.847zm5.223 7.656v-3.39h.984c.957 0 1.723.765 1.723 1.695s-.766 1.695-1.723 1.695z" clip-rule="evenodd"/></g><defs><clipPath id="a"><path fill="#fff" d="M0 0h28v28H0z"/></clipPath></defs></svg>
